icons/government-line.svg

<svg xmlns="http://www.w3.org/2000/svg" width="24" height="24" fill="none"><g clip-path="url(#a)"><g><path fill="#121212" d="M20 6H23V8H22V19H23V21H1V19H2V8H1V6H4V4C4 3.73478 4.10536 3.48043 4.29289 3.29289C4.48043 3.10536 4.73478 3 5 3H19C19.2652 3 19.5196 3.10536 19.7071 3.29289C19.8946 3.48043 20 3.73478 20 4V6ZM20 8H4V19H7V12H9V19H11V12H13V19H15V12H17V19H20V8ZM6 5V6H18V5H6Z"/></g></g><defs><clipPath id="a"><rect width="24" height="24" fill="white"/></clipPath></defs></svg>

<svg width="24" height="24" fill="none" xmlns="http://www.w3.org/2000/svg"><g clip-path="url(#a)"><path d="M20 6h3v2h-1v11h1v2H1v-2h1V8H1V6h3V4a1 1 0 0 1 1-1h14a1 1 0 0 1 1 1v2Zm0 2H4v11h3v-7h2v7h2v-7h2v7h2v-7h2v7h3V8ZM6 5v1h12V5H6Z" /></g><defs><clipPath id="a"><path fill="#fff" d="M0 0h24v24H0z"/></clipPath></defs></svg>
